X:1
T:Ecco amor che trionfante
T:Raffaello Rontani
T:Source : Le varie Musiche a uno e due voci---Roma---G.B.Robletti---1622. Editor : André Vierendeels (06/05/16).
T:Notes : Original clefs : C1, F4 Original note values have been halved in 3-beat measures Dotted brackets indicate black notes Figures above the BC are notated in original print m4 in BC: "D" no dotted in original print m7 in BC: "B"  no dotted in original print m 13 in S : "A" and in BC "D" no dotted in original print 
T:Ecco amor che trionfante
T:©
T:©
T:©
T:©
C:Raffaello Rontani
Z:©
%%score 1 2
L:1/8
Q:1/4=95
M:6/4
K:F
V:1 treble nm="Soprano" snm="S"
V:2 bass nm="BC" snm="BC"
V:1
 z2 G2 G2 d3 c de | f4 f2 e4 e2 | d3 e cd B2 G2 A2 | B2 c4 d6 | f2 f2 e2 d4 c2 | c4 d2 GF GA B2 | %6
w: Ec- co'a- mor _ _ _|_ che tri- on-|fan- * * * * * *|* * te,|se- co'i suoi vin- t'in|no- bil pom- * * * *|
w: Sott' il te- * * *|* ne- ro sem-|bian- * * * * * *|* * te,|do- ve pur re- gi-|a mae- stà _ _ _ _|
w: Ra- ro'è ben _ _ _|_ fra la sua|greg- * * * * * *|* * gia,|o- ve'in- fe- li- ce'an-|ch'io tor- men- * * * *|
 B2 c4 B6 | z2 F2 F2 F4 F2 | G4 G2 A4 A2 | z2 A3 B c2 c2 f2 | d2 D3 E F2 F2 B2 | G4 c4 B3 A | %12
w: p'ad- du- ce,|vol- ga'o- gnun dal|cie- co du- ce,|piu ve- lo- ce che|puo, piu ve- lo- ce che|puo gl'oc- chi'e le|
w: ri- lu- ce,|nu- tre'un fo- co|sen- ze lu- ce,|quel che sem- bra fan-|cuil- lo'ed _ _ è gi-|gan- te, è gi-|
w: to'è su- do,|che dir pos- s'io|mi dis- chiu- do,|dal suo car- cer cru-|del' che si dan- neg- *|gia, che si dan-|
 A6 G6 :: d2 d2 e2 f4 f2 | e3 d ef d4 d2 | c2 c2 =B2 c4 c2 | G2 c2 B2 A4 A2 | A2 B2 c2 d3 e cd | %18
w: pian- te,|e'l suo ve- sti- gio'er-|ran- * * * * te,|fug- gir non tar- di,|che da suoi dar- di|per al- trui mai _ _ _|
w: gan- te,|ne'al suo fe- rir d'a-|van- * * * * te,|va- glion ri- guar- di,|ad huom, che tar- di,|dal luo- go vol- * * *|
w: neg- gia,|on- de cias- cun pro-|veg- * * * * gia,|pria che l'ag- gra- ve|no- do so- a- ve,|che se v'in- cor- * * *|
 B2 A2 G2 F2 G2 A2 | B6 A2 A3 G | G12 :| %21
w: _ _ gia mai _ _|_ ri- me- dio|fu.|
w: * * ga'il pas- * *|so, ov' e- gli|fu.|
w: re non scor- ras- si piu,|non scor- ras- si|piu.|
V:2
 G,,4 G,,2 G,,4 G,,2 | D,4 D,2 A,4 A,2 | B,4 A,2 G,4 F,2- | F,2 _E,4 D,6 | B,,4 C,2 D,4 E,2 | %5
 F,4 D,2 _E,4 E,2 | D,2 F,4 B,,6 | B,,4 B,,2 B,,4 A,,2 | G,,4 C,2 F,,4 F,,2 | F,4 F,2 F,4 F,2 | %10
 B,,4 B,,2 B,,4 B,,2 | _E,4 C,4 G,,4 | D,6 G,,6 :: G,2 F,2 E,2 D,4 D,2 | A,4 A,2 B,4 B,2 | %15
 F,2 G,2 G,2 C,4 C,2 | C,4 C,2 F,2 E,2 D,2 | C,2 B,,2 A,,2 G,,4 A,,2 | B,,4 C,2 D,2 E,2 ^F,2 | %19
 G,2 D,2 _E,2 C,2 D,4 | G,,12 :| %21

